packages/usa-icon/src/img/material-icons/grading.svg

<svg xmlns="http://www.w3.org/2000/svg" height="24" viewBox="0 0 24 24" width="24"><path fill="none" d="M0 0h24v24H0z"/><path d="M4 7h16v2H4V7zm0 6h16v-2H4v2zm0 4h7v-2H4v2zm0 4h7v-2H4v2zm11.41-2.83L14 16.75l-1.41 1.41L15.41 21 20 16.42 18.58 15l-3.17 3.17zM4 3v2h16V3H4z"/></svg>

<svg xmlns="http://www.w3.org/2000/svg" enable-background="new 0 0 24 24" height="24" viewBox="0 0 24 24" width="24"><g><rect fill="none" height="24" width="24"/></g><g><path d="M4,7h16v2H4V7z M4,13h16v-2H4V13z M4,17h7v-2H4V17z M4,21h7v-2H4V21z M15.41,18.17L14,16.75l-1.41,1.41L15.41,21L20,16.42 L18.58,15L15.41,18.17z M4,3v2h16V3H4z"/></g></svg>
